img/2nd-week6/person.svg

<svg xmlns="http://www.w3.org/2000/svg" width="32" height="31"><defs><style>.a{fill:#b19e73}</style></defs><circle class="a" cx="3" cy="3" r="3" transform="translate(3 3)"/><path class="a" d="M7 25V15a6.958 6.958 0 0 1 1.25-3.982C8.167 11.013 8.084 11 8 11H4a4 4 0 0 0-4 4v6h2v7h7v-3z"/><circle class="a" cx="3" cy="3" r="3" transform="translate(23 3)"/><path class="a" d="M25 25V15a6.958 6.958 0 0 0-1.25-3.982c.083-.005.166-.018.25-.018h4a4 4 0 0 1 4 4v6h-2v7h-7v-3zm-7-15h-4a5.006 5.006 0 0 0-5 5v8h3v8h8v-8h3v-8a5.006 5.006 0 0 0-5-5z"/><circle class="a" cx="4" cy="4" r="4" transform="translate(12)"/></svg>

<svg xmlns="http://www.w3.org/2000/svg" width="32" height="31" viewBox="0 0 32 31"><defs><style>.a{fill:#b19e73;}</style></defs><circle class="a" cx="3" cy="3" r="3" transform="translate(3 3)"/><path class="a" d="M7,25V15a6.958,6.958,0,0,1,1.25-3.982C8.167,11.013,8.084,11,8,11H4a4,4,0,0,0-4,4v6H2v7H9V25Z"/><circle class="a" cx="3" cy="3" r="3" transform="translate(23 3)"/><path class="a" d="M25,25V15a6.958,6.958,0,0,0-1.25-3.982c.083-.005.166-.018.25-.018h4a4,4,0,0,1,4,4v6H30v7H23V25Z"/><path class="a" d="M18,10H14a5.006,5.006,0,0,0-5,5v8h3v8h8V23h3V15A5.006,5.006,0,0,0,18,10Z"/><circle class="a" cx="4" cy="4" r="4" transform="translate(12)"/></svg>
